flaticon/science/calculator.svg

<svg xmlns="http://www.w3.org/2000/svg" width="32" height="32" viewBox="0 0 24 24">
    <path d="M 19.601562 0 L 4.398438 0 C 3.28125 0 2.398438 0.878906 2.398438 2 L 2.398438 22 C 2.398438 23.121094 3.28125 24 4.398438 24 L 19.601562 24 C 20.71875 24 21.601562 23.121094 21.601562 22 L 21.601562 2 C 21.601562 0.878906 20.71875 0 19.601562 0 Z M 20.800781 22 C 20.800781 22.679688 20.28125 23.199219 19.601562 23.199219 L 4.398438 23.199219 C 3.71875 23.199219 3.199219 22.679688 3.199219 22 L 3.199219 2 C 3.199219 1.320312 3.71875 0.800781 4.398438 0.800781 L 19.601562 0.800781 C 20.28125 0.800781 20.800781 1.320312 20.800781 2 Z M 20.800781 22"/>
    <path d="M17.601562 2L6.398438 2C5.71875 2 5.199219 2.519531 5.199219 3.199219L5.199219 6.398438C5.199219 7.078125 5.71875 7.601562 6.398438 7.601562L17.601562 7.601562C18.28125 7.601562 18.800781 7.078125 18.800781 6.398438L18.800781 3.199219C18.800781 2.519531 18.28125 2 17.601562 2zM18 6.398438C18 6.640625 17.839844 6.800781 17.601562 6.800781L6.398438 6.800781C6.160156 6.800781 6 6.640625 6 6.398438L6 3.199219C6 2.960938 6.160156 2.800781 6.398438 2.800781L17.601562 2.800781C17.839844 2.800781 18 2.960938 18 3.199219zM8 8.398438L6.398438 8.398438C5.71875 8.398438 5.199219 8.921875 5.199219 9.601562L5.199219 11.199219C5.199219 11.878906 5.71875 12.398438 6.398438 12.398438L8 12.398438C8.679688 12.398438 9.199219 11.878906 9.199219 11.199219L9.199219 9.601562C9.199219 8.921875 8.679688 8.398438 8 8.398438zM8.398438 11.199219C8.398438 11.441406 8.238281 11.601562 8 11.601562L6.398438 11.601562C6.160156 11.601562 6 11.441406 6 11.199219L6 9.601562C6 9.359375 6.160156 9.199219 6.398438 9.199219L8 9.199219C8.238281 9.199219 8.398438 9.359375 8.398438 9.601562zM12.800781 8.398438L11.199219 8.398438C10.519531 8.398438 10 8.921875 10 9.601562L10 11.199219C10 11.878906 10.519531 12.398438 11.199219 12.398438L12.800781 12.398438C13.480469 12.398438 14 11.878906 14 11.199219L14 9.601562C14 8.921875 13.480469 8.398438 12.800781 8.398438zM13.199219 11.199219C13.199219 11.441406 13.039062 11.601562 12.800781 11.601562L11.199219 11.601562C10.960938 11.601562 10.800781 11.441406 10.800781 11.199219L10.800781 9.601562C10.800781 9.359375 10.960938 9.199219 11.199219 9.199219L12.800781 9.199219C13.039062 9.199219 13.199219 9.359375 13.199219 9.601562zM17.601562 8.398438L16 8.398438C15.320312 8.398438 14.800781 8.921875 14.800781 9.601562L14.800781 11.199219C14.800781 11.878906 15.320312 12.398438 16 12.398438L17.601562 12.398438C18.28125 12.398438 18.800781 11.878906 18.800781 11.199219L18.800781 9.601562C18.800781 8.921875 18.28125 8.398438 17.601562 8.398438zM18 11.199219C18 11.441406 17.839844 11.601562 17.601562 11.601562L16 11.601562C15.761719 11.601562 15.601562 11.441406 15.601562 11.199219L15.601562 9.601562C15.601562 9.359375 15.761719 9.199219 16 9.199219L17.601562 9.199219C17.839844 9.199219 18 9.359375 18 9.601562zM8 13.199219L6.398438 13.199219C5.71875 13.199219 5.199219 13.71875 5.199219 14.398438L5.199219 16C5.199219 16.679688 5.71875 17.199219 6.398438 17.199219L8 17.199219C8.679688 17.199219 9.199219 16.679688 9.199219 16L9.199219 14.398438C9.199219 13.71875 8.679688 13.199219 8 13.199219zM8.398438 16C8.398438 16.238281 8.238281 16.398438 8 16.398438L6.398438 16.398438C6.160156 16.398438 6 16.238281 6 16L6 14.398438C6 14.160156 6.160156 14 6.398438 14L8 14C8.238281 14 8.398438 14.160156 8.398438 14.398438zM12.800781 13.199219L11.199219 13.199219C10.519531 13.199219 10 13.71875 10 14.398438L10 16C10 16.679688 10.519531 17.199219 11.199219 17.199219L12.800781 17.199219C13.480469 17.199219 14 16.679688 14 16L14 14.398438C14 13.71875 13.480469 13.199219 12.800781 13.199219zM13.199219 16C13.199219 16.238281 13.039062 16.398438 12.800781 16.398438L11.199219 16.398438C10.960938 16.398438 10.800781 16.238281 10.800781 16L10.800781 14.398438C10.800781 14.160156 10.960938 14 11.199219 14L12.800781 14C13.039062 14 13.199219 14.160156 13.199219 14.398438zM8 18L6.398438 18C5.71875 18 5.199219 18.519531 5.199219 19.199219L5.199219 20.800781C5.199219 21.480469 5.71875 22 6.398438 22L8 22C8.679688 22 9.199219 21.480469 9.199219 20.800781L9.199219 19.199219C9.199219 18.519531 8.679688 18 8 18zM8.398438 20.800781C8.398438 21.039062 8.238281 21.199219 8 21.199219L6.398438 21.199219C6.160156 21.199219 6 21.039062 6 20.800781L6 19.199219C6 18.960938 6.160156 18.800781 6.398438 18.800781L8 18.800781C8.238281 18.800781 8.398438 18.960938 8.398438 19.199219zM12.800781 18L11.199219 18C10.519531 18 10 18.519531 10 19.199219L10 20.800781C10 21.480469 10.519531 22 11.199219 22L12.800781 22C13.480469 22 14 21.480469 14 20.800781L14 19.199219C14 18.519531 13.480469 18 12.800781 18zM13.199219 20.800781C13.199219 21.039062 13.039062 21.199219 12.800781 21.199219L11.199219 21.199219C10.960938 21.199219 10.800781 21.039062 10.800781 20.800781L10.800781 19.199219C10.800781 18.960938 10.960938 18.800781 11.199219 18.800781L12.800781 18.800781C13.039062 18.800781 13.199219 18.960938 13.199219 19.199219zM17.601562 13.199219L16 13.199219C15.320312 13.199219 14.800781 13.71875 14.800781 14.398438L14.800781 20.800781C14.800781 21.480469 15.320312 22 16 22L17.601562 22C18.28125 22 18.800781 21.480469 18.800781 20.800781L18.800781 14.398438C18.800781 13.71875 18.28125 13.199219 17.601562 13.199219zM18 20.800781C18 21.039062 17.839844 21.199219 17.601562 21.199219L16 21.199219C15.761719 21.199219 15.601562 21.039062 15.601562 20.800781L15.601562 14.398438C15.601562 14.160156 15.761719 14 16 14L17.601562 14C17.839844 14 18 14.160156 18 14.398438zM18 20.800781"/>
</svg>

<svg xmlns="http://www.w3.org/2000/svg" width="32" height="32" viewBox="0 0 24 24">
    <path d="M19.602 0H4.398c-1.117 0-2 .879-2 2v20c0 1.121.883 2 2 2h15.204c1.117 0 2-.879 2-2V2c0-1.121-.883-2-2-2zM20.8 22c0 .68-.52 1.2-1.2 1.2H4.399c-.68 0-1.199-.52-1.199-1.2V2c0-.68.52-1.2 1.2-1.2h15.203c.68 0 1.199.52 1.199 1.2zm0 0"/>
    <path d="M17.602 2H6.398C5.718 2 5.2 2.52 5.2 3.2v3.198c0 .68.52 1.204 1.2 1.204h11.203c.68 0 1.199-.524 1.199-1.204V3.2C18.8 2.52 18.28 2 17.6 2zM18 6.398c0 .243-.16.403-.398.403H6.398C6.16 6.8 6 6.64 6 6.398V3.2c0-.238.16-.398.398-.398h11.204c.238 0 .398.16.398.398zm0 0M8 8.398H6.398c-.68 0-1.199.524-1.199 1.204v1.597c0 .68.52 1.2 1.2 1.2H8c.68 0 1.2-.52 1.2-1.2V9.602c0-.68-.52-1.204-1.2-1.204zm.398 2.801c0 .242-.16.403-.398.403H6.398c-.238 0-.398-.16-.398-.403V9.602c0-.243.16-.403.398-.403H8c.238 0 .398.16.398.403zm0 0M12.8 8.398h-1.6c-.68 0-1.2.524-1.2 1.204v1.597c0 .68.52 1.2 1.2 1.2h1.6c.68 0 1.2-.52 1.2-1.2V9.602c0-.68-.52-1.204-1.2-1.204zm.4 2.801c0 .242-.16.403-.4.403h-1.6c-.24 0-.4-.16-.4-.403V9.602c0-.243.16-.403.4-.403h1.6c.24 0 .4.16.4.403zm0 0M17.602 8.398H16c-.68 0-1.2.524-1.2 1.204v1.597c0 .68.52 1.2 1.2 1.2h1.602c.68 0 1.199-.52 1.199-1.2V9.602c0-.68-.52-1.204-1.2-1.204zM18 11.2c0 .242-.16.403-.398.403H16c-.238 0-.398-.16-.398-.403V9.602c0-.243.16-.403.398-.403h1.602c.238 0 .398.16.398.403zm0 0M8 13.2H6.398c-.68 0-1.199.519-1.199 1.198V16c0 .68.52 1.2 1.2 1.2H8c.68 0 1.2-.52 1.2-1.2v-1.602c0-.68-.52-1.199-1.2-1.199zm.398 2.8c0 .238-.16.398-.398.398H6.398C6.16 16.398 6 16.238 6 16v-1.602c0-.238.16-.398.398-.398H8c.238 0 .398.16.398.398zm0 0M12.8 13.2h-1.6c-.68 0-1.2.519-1.2 1.198V16c0 .68.52 1.2 1.2 1.2h1.6c.68 0 1.2-.52 1.2-1.2v-1.602c0-.68-.52-1.199-1.2-1.199zm.4 2.8c0 .238-.16.398-.4.398h-1.6c-.24 0-.4-.16-.4-.398v-1.602c0-.238.16-.398.4-.398h1.6c.24 0 .4.16.4.398zm0 0M8 18H6.398c-.68 0-1.199.52-1.199 1.2v1.6c0 .68.52 1.2 1.2 1.2H8c.68 0 1.2-.52 1.2-1.2v-1.6c0-.68-.52-1.2-1.2-1.2zm.398 2.8c0 .24-.16.4-.398.4H6.398c-.238 0-.398-.16-.398-.4v-1.6c0-.24.16-.4.398-.4H8c.238 0 .398.16.398.4zm0 0M12.8 18h-1.6c-.68 0-1.2.52-1.2 1.2v1.6c0 .68.52 1.2 1.2 1.2h1.6c.68 0 1.2-.52 1.2-1.2v-1.6c0-.68-.52-1.2-1.2-1.2zm.4 2.8c0 .24-.16.4-.4.4h-1.6c-.24 0-.4-.16-.4-.4v-1.6c0-.24.16-.4.4-.4h1.6c.24 0 .4.16.4.4zm0 0M17.602 13.2H16c-.68 0-1.2.519-1.2 1.198v6.403c0 .68.52 1.199 1.2 1.199h1.602c.68 0 1.199-.52 1.199-1.2v-6.402c0-.68-.52-1.199-1.2-1.199zM18 20.8c0 .24-.16.4-.398.4H16c-.238 0-.398-.16-.398-.4v-6.402c0-.238.16-.398.398-.398h1.602c.238 0 .398.16.398.398zm0 0"/>
</svg>
